src/main/resources/icons/AllIcons/nodes/plugin.svg

<!-- Copyright 2000-2021 JetBrains s.r.o. Use of this source code is governed by the Apache 2.0 license that can be found in the LICENSE file. -->
<svg xmlns="http://www.w3.org/2000/svg" width="16" height="16" viewBox="0 0 16 16">
  <path fill="#9AA7B0" fill-opacity=".8" fill-rule="evenodd" d="M3,5.9902 C3,6.3122 3.181,6.6082 3.467,6.7542 L3.779,6.9112 C4.022,7.0342 4.281,7.0212 4.5,6.9212 L4.5,5.5062 L4.5,4.4942 L4.5,3.0792 C4.281,2.9782 4.022,2.9662 3.779,3.0892 L3.467,3.2462 C3.181,3.3912 3,3.6872 3,4.0102 L3,4.4942 L3,5.5062 L3,5.9902 Z M6,14.0002 C4.111,14.0002 1.978,11.8222 2,10.0002 L2,8.0002 C2,6.5792 2.566,6.0002 3,6.0002 L3,4.0002 C1.9,4.0002 1,6.0792 1,8.0002 L1,10.0002 C1,12.7332 3.6,15.0002 6,15.0002 L11,15.0002 L11,14.0002 L6,14.0002 Z M7.137,1.0002 L11,1.0002 L11,8.5002 L11,9.0002 L9.5,9.0002 L7.137,9.0002 C5.957,9.0002 5,7.9242 5,6.5962 L5,3.4032 C5,2.0762 5.957,1.0002 7.137,1.0002 Z M11.5,8.0002 L15,8.0002 L15,7.0002 L11.5,7.0002 L11.5,8.0002 Z M11.5,3.0002 L15,3.0002 L15,2.0002 L11.5,2.0002 L11.5,3.0002 Z"/>
</svg>

<svg xmlns="http://www.w3.org/2000/svg" width="16" height="16" viewBox="0 0 16 16"><rect id="frame" width="16" height="16" fill="none"/><path fill="#9AA7B0" fill-opacity=".8" fill-rule="evenodd" d="M3 5.99c0 .322.181.618.467.764l.312.157a.82.82 0 0 0 .721.01V3.08a.816.816 0 0 0-.721.01l-.312.157A.857.857 0 0 0 3 4.01v1.98zM6 14c-1.889 0-4.022-2.178-4-4V8c0-1.42.566-2 1-2V4C1.9 4 1 6.08 1 8v2c0 2.733 2.6 5 5 5h5v-1H6zM7.137 1H11v8H7.137C5.957 9 5 7.924 5 6.596V3.403C5 2.076 5.957 1 7.137 1zM11.5 8H15V7h-3.5v1zm0-5H15V2h-3.5v1z"/></svg>
